X:1
T:SLEIGH SONG
M:2/4
Q:1/4=120
K:Ab
c6B2|A4G4|F4=E4|F4C4|c6d2|c4B4|A4G4|F8|E6e2|
e6d2|d6c2|c4B4|c4d4|c2B2A2G2|A4F4|F8|c3cc2c2|
c2B2c2d2|-d2d4d2|c2B2A2c2|-c2d4c2|B2A2G2A2|
-A2F4F2|-F5||
